src/img/Now_Leasing_Badge.svg

<?xml version="1.0" encoding="UTF-8"?>
<svg width="107px" height="106px" viewBox="0 0 107 106" version="1.1" xmlns="http://www.w3.org/2000/svg" xmlns:xlink="http://www.w3.org/1999/xlink">
    <!-- Generator: sketchtool 49.3 (51167) - http://www.bohemiancoding.com/sketch -->
    <title>0796644C-219F-4214-8605-AB57759ECCE6</title>
    <desc>Created with sketchtool.</desc>
    <defs>
        <polygon id="path-1" points="56.5 93.0439196 51.8897819 96.7803882 48.0700078 92.238953 42.835971 95.0354092 39.9446975 89.8531466 34.2760137 91.6085193 32.4177389 85.9727297 26.5192892 86.6235751 25.761176 80.7379508 19.8461456 80.2607456 20.2155943 74.3380084 14.4977679 72.75 15.9814255 67.0042129 10.6674603 64.3627962 13.2117036 59.0016271 8.49366007 55.4022697 12.0065335 50.619485 8.05493405 46.1922771 12.4094733 42.1607393 9.36713894 37.0656916 14.4059595 33.9311109 12.3828482 28.3523719 17.923834 26.2280402 16.9930663 20.3672399 22.8359517 19.3299361 23.0311679 13.3988992 28.9647758 13.4861141 30.2789204 7.69920366 36.0887947 8.90778523 38.4743709 3.47415525 43.9505276 5.76042211 47.3213146 0.876458183 52.2658312 4.1577787 56.5 0 60.7341688 4.1577787 65.6786854 0.876458183 69.0494724 5.76042211 74.5256291 3.47415525 76.9112053 8.90778523 82.7210796 7.69920366 84.0352242 13.4861141 89.9688321 13.3988992 90.1640483 19.3299361 96.0069337 20.3672399 95.076166 26.2280402 100.617152 28.3523719 98.5940405 33.9311109 103.632861 37.0656916 100.590527 42.1607393 104.945066 46.1922771 100.993466 50.619485 104.50634 55.4022697 99.7882964 59.0016271 102.33254 64.3627962 97.0185745 67.0042129 98.5022321 72.75 92.7844057 74.3380084 93.1538544 80.2607456 87.238824 80.7379508 86.4807108 86.6235751 80.5822611 85.9727297 78.7239863 91.6085193 73.0553025 89.8531466 70.164029 95.0354092 64.9299922 92.238953 61.1102181 96.7803882"></polygon>
    </defs>
    <g id="Gate-77-Homepage" stroke="none" stroke-width="1" fill="none" fill-rule="evenodd">
        <g id="Desktop-Landing" transform="translate(-1059.000000, -145.000000)">
            <g id="Hero">
                <g id="Now-Leasing-Badge" transform="translate(1056.000000, 150.000000)">
                    <g id="Star">
                        <use fill="#002B53" fill-rule="evenodd" xlink:href="#path-1"></use>
                        <path stroke="#76BD22" stroke-width="3" d="M56.5,94.9747118 L51.6899483,98.8731407 L47.704603,94.1348532 L42.2436926,97.0525242 L39.2270945,91.6456322 L33.312697,93.4770929 L31.3738738,87.5970155 L25.219751,88.2760723 L24.4287768,82.1353309 L18.2573547,81.6374408 L18.6428174,75.4579777 L12.6771472,73.8011359 L14.2251152,67.806293 L8.6808118,65.0503819 L11.3353374,59.4568286 L6.41278645,55.7014541 L10.0779283,50.7113558 L5.9550435,46.092247 L10.4983337,41.8859589 L7.32412697,36.5700623 L12.5813593,33.2996107 L10.4705546,27.4790566 L16.2517189,25.2626441 L15.2806063,19.1478027 L21.3767563,18.0655361 L21.5804344,11.8774136 L27.7712393,11.9684089 L29.1423465,5.93066015 L35.2040545,7.19162867 L37.6930354,1.5224736 L43.4065606,3.90784055 L46.9234571,-1.18782274 L52.0822978,2.23572927 L56.5,-2.10227171 L60.9177022,2.23572927 L66.0765429,-1.18782274 L69.5934394,3.90784055 L75.3069646,1.5224736 L77.7959455,7.19162867 L83.8576535,5.93066015 L85.2287607,11.9684089 L91.4195656,11.8774136 L91.6232437,18.0655361 L97.7193937,19.1478027 L96.7482811,25.2626441 L102.529445,27.4790566 L100.418641,33.2996107 L105.675873,36.5700623 L102.501666,41.8859589 L107.044957,46.092247 L102.922072,50.7113558 L106.587214,55.7014541 L101.664663,59.4568286 L104.319188,65.0503819 L98.7748848,67.806293 L100.322853,73.8011359 L94.3571826,75.4579777 L94.7426453,81.6374408 L88.5712232,82.1353309 L87.780249,88.2760723 L81.6261262,87.5970155 L79.687303,93.4770929 L73.7729055,91.6456322 L70.7563074,97.0525242 L65.295397,94.1348532 L61.3100517,98.8731407 L56.5,94.9747118 Z"></path>
                    </g>
                    <text id="Now-Leasing!" transform="translate(55.904357, 46.707229) rotate(-12.500000) translate(-55.904357, -46.707229) " font-family="OpenSans-Bold, Open Sans" font-size="18" font-weight="bold" line-spacing="18" fill="#FFFFFF">
                        <tspan x="24.1670519" y="31.9679709">Now </tspan>
                        <tspan x="8.12701283" y="49.9679709">Leasing!</tspan>
                    </text>
                </g>
            </g>
        </g>
    </g>
</svg>

<svg width="107" height="106" xmlns="http://www.w3.org/2000/svg" xmlns:xlink="http://www.w3.org/1999/xlink"><defs><path id="a" d="M56.5 93.044l-4.61 3.736-3.82-4.541-5.234 2.796-2.891-5.182-5.669 1.756-1.858-5.636-5.899.65-.758-5.885-5.915-.477.37-5.923-5.718-1.588 1.483-5.746-5.314-2.641 2.545-5.361-4.718-3.6 3.513-4.783-3.952-4.427 4.354-4.031-3.042-5.095 5.039-3.135-2.023-5.579 5.54-2.124-.93-5.86 5.843-1.038.195-5.931 5.934.087L30.279 7.7l5.81 1.209 2.385-5.434 5.477 2.286L47.32.876l4.945 3.282L56.5 0l4.234 4.158L65.68.876l3.37 4.884 5.477-2.286 2.385 5.434 5.81-1.209 1.314 5.787 5.934-.087.195 5.93 5.843 1.038-.93 5.861 5.54 2.124-2.023 5.58 5.039 3.134-3.042 5.095 4.354 4.031-3.952 4.427 3.513 4.783-4.718 3.6 2.545 5.36-5.314 2.642 1.483 5.746-5.718 1.588.37 5.923-5.915.477-.758 5.886-5.899-.651-1.858 5.636-5.669-1.756-2.891 5.182-5.234-2.796-3.82 4.541z"/></defs><g fill="none" fill-rule="evenodd"><g transform="translate(-3 5)"><use fill="#002B53" xlink:href="#a"/><path stroke="#76BD22" stroke-width="3" d="M56.5 94.975l-4.81 3.898-3.985-4.738-5.461 2.918-3.017-5.407-5.914 1.831-1.94-5.88-6.153.68-.791-6.142-6.172-.498.386-6.179-5.966-1.657 1.548-5.995-5.544-2.756 2.654-5.593L6.413 55.7l3.665-4.99-4.123-4.619 4.543-4.206-3.174-5.316 5.257-3.27-2.11-5.82 5.78-2.217-.97-6.115 6.096-1.082.203-6.189 6.191.091 1.371-6.037 6.062 1.26 2.489-5.669 5.714 2.386 3.516-5.096 5.16 3.424L56.5-2.102l4.418 4.338 5.159-3.424 3.516 5.096 5.714-2.386 2.489 5.67 6.062-1.261 1.37 6.037 6.192-.09.203 6.188 6.096 1.082-.97 6.115 5.78 2.216-2.11 5.82 5.257 3.271-3.174 5.316 4.543 4.206-4.123 4.62 3.665 4.99-4.922 3.755 2.654 5.593-5.544 2.756 1.548 5.995-5.966 1.657.386 6.18-6.172.497-.79 6.141-6.155-.679-1.939 5.88-5.914-1.831-3.017 5.407-5.46-2.918-3.986 4.738-4.81-3.898z"/></g><text transform="rotate(-12.5 77.232 62.904)" font-family="OpenSans-Bold, Open Sans" font-size="18" font-weight="bold" fill="#FFF"><tspan x="24.167" y="31.968">Now </tspan> <tspan x="8.127" y="49.968">Leasing!</tspan></text></g></svg>
